assets/images/members/sectigo/sectigo.svg

<svg xmlns="http://www.w3.org/2000/svg" viewBox="0 0 2146 410"><style>.shp0{fill:#091b2a}.shp1{fill:#00af73}</style><g id="Layer"><path fill-rule="evenodd" d="M2027.3 59.5c0-10.6 2.6-20.5 7.8-29.6s12.4-16.3 21.6-21.5 19.1-7.9 29.8-7.9 20.6 2.6 29.7 7.9c9.2 5.2 16.3 12.4 21.5 21.5s7.8 19 7.8 29.6q0 15.6-7.5 29.1c-5 9.1-12.1 16.3-21.3 21.8s-19.3 8.3-30.3 8.3c-10.9 0-21-2.7-30.2-8.2-9.2-5.4-16.3-12.7-21.4-21.8-4.9-8.9-7.5-18.7-7.5-29.2m9.6 0c0 9 2.2 17.4 6.7 25.1 4.4 7.7 10.5 13.7 18.1 18.1s15.9 6.5 24.8 6.5 17.2-2.2 24.9-6.7 13.7-10.5 18-18.1c4.4-7.6 6.5-16 6.5-25s-2.2-17.3-6.5-24.9q-6.6-11.4-18-18c-7.6-4.4-16-6.6-24.9-6.6s-17.2 2.2-24.8 6.5c-7.7 4.3-13.7 10.4-18.1 18-4.5 7.8-6.7 16.1-6.7 25.1m37.3 32.6h-11.7v-67h23c8.5 0 15.1 1.7 19.8 5.2 4.7 3.4 7 8.5 7 15s-3.6 11.4-10.7 14.8c6.8 2.6 10.2 8 10.2 16.1V81c0 4.5.5 7.8 1.4 9.8v1.3h-12.1c-.8-1.9-1.2-5.3-1.2-10.1 0-4.9-.1-7.8-.2-8.6-.9-5.1-4.5-7.7-10.9-7.9h-14.6zm13-36.8c4-.1 7.2-1 9.7-2.8 2.4-1.7 3.7-4 3.7-6.8 0-3.8-1.1-6.5-3.2-8.1-2.2-1.6-6-2.4-11.6-2.4h-11.5l-.1 20.1z" class="shp0"/><path d="M309.2 19.8c5.7-8.5.5-19.3-9.4-19.3H140.6c-33.5 0-60.2 8.9-79.9 26.7-19.7 17.7-31 43.1-34 76.3l-7.6 86.8c-2.8 33.2 4.1 58.6 20.7 76.3q25.05 26.7 75.3 26.7h36.4v-.2c7.2-1 11.1-5.4 11.8-13.1l3.7-42.6c.7-7.7-5-14-12.8-14H134c-13.1 0-22.3-2.9-27.6-8.6-5.2-5.7-7.2-15.4-6.1-29l6.8-77.8c1.2-13.6 4.9-23.2 11.1-28.9s15.9-8.6 29.1-8.6h107.4c12.7 0 25-6.7 32.3-17.7z" class="shp1"/><path d="M3.3 390.3c-5.7 8.5-.5 19.3 9.4 19.3h161.5c33.5 0 60.2-8.9 79.9-26.7 19.7-17.7 31-43.1 34-76.3l7.6-86.8c2.8-33.2-4.1-58.6-20.7-76.3q-25.05-26.7-75.3-26.7h-36.4v.2c-7.2 1-11.1 5.4-11.8 13.1l-3.7 42.6c-.7 7.7 5 14 12.8 14H181c13.1 0 22.3 2.9 27.6 8.6 5.2 5.7 7.2 15.4 6.1 28.9l-6.8 77.8c-1.2 13.6-4.9 23.2-11.1 28.9s-15.9 8.6-29.1 8.6H57.9c-12.7 0-25 6.7-32.3 17.7z" class="shp1"/><path d="M551 409.6H343c-8.9 0-13-4.4-12.2-13.4l33.5-382.3C365.1 5 369.9.5 378.8.5h208c8.5 0 12.3 4.4 11.6 13.4l-3.8 43.3c-.8 8.9-5.4 13.4-13.9 13.4h-133c-5.1 0-7.8 2.3-8.2 7l-7.2 82.7c-.4 4.7 1.9 7 7 7h108.8c8.9 0 13 4.5 12.2 13.4l-3.8 43.3c-.8 8.9-5.6 13.4-14.5 13.4H433.2c-5.1 0-7.8 2.3-8.2 7l-7.7 88.4c-.4 4.7 1.9 7 7 7h132.9c8.5 0 12.3 4.5 11.6 13.4l-3.8 43.3c-.9 8.6-5.5 13.1-14 13.1M775.4 409.6h-69.3q-50.25 0-75.3-26.7c-16.7-17.8-23.6-43.5-20.6-77l17.6-201.7c2.9-33.5 14.3-59.2 34.1-77S708.3.5 741.8.5h69.3c33.1 0 58.1 9 74.9 27 16.9 18 23.9 43.6 21 76.6l-2.6 29.9c-.8 9.3-5.9 14-15.2 14h-53.4c-8.9 0-13-4.7-12.1-14l2.3-26.1c1.2-13.6-.8-23.2-6.1-28.9-5.2-5.7-14.6-8.6-28.2-8.6h-43.3c-13.1 0-22.8 2.9-29.1 8.6-6.2 5.7-9.9 15.4-11.1 28.9l-17 194c-1.2 13.6.8 23.2 6.1 28.9 5.2 5.7 14.4 8.6 27.6 8.6h43.3c13.6 0 23.5-2.9 29.7-8.6s9.9-15.4 11.1-28.9l2.3-26.1c.8-9.3 5.7-14 14.6-14h53.4c9.3 0 13.6 4.7 12.8 14l-2.6 29.9c-2.9 33.1-14.4 58.6-34.4 76.6-20.1 18.3-46.6 27.3-79.7 27.3M1071 409.6h-53.4c-9.3 0-13.6-4.4-12.8-13.4l27.9-318.7c.4-4.7-1.7-7-6.4-7h-72.5c-8.9 0-13-4.4-12.2-13.4l3.8-43.3C946.2 4.9 951 .4 959.9.4h240.4c8.9 0 13 4.4 12.2 13.4l-3.8 43.3c-.8 8.9-5.6 13.4-14.5 13.4h-72.5c-5.1 0-7.8 2.3-8.2 7l-27.9 318.7c-.9 8.9-5.7 13.4-14.6 13.4M1334.5 13.9 1301 396.2c-.8 8.9-5.6 13.4-14.5 13.4h-54.1c-8.9 0-13-4.5-12.2-13.4l33.5-382.3c.8-8.9 5.6-13.4 14.5-13.4h54.1c8.9 0 13 4.5 12.2 13.4" class="shp0"/><path fill-rule="evenodd" d="M1853.8 409.6h-71.2q-50.25 0-75.3-26.7c-16.7-17.8-23.6-43.5-20.6-77l17.6-201.7c2.9-33.5 14.3-59.2 34.1-77S1784.8.5 1818.3.5h71.2q50.25 0 75.3 26.7c16.7 17.8 23.6 43.5 20.6 77l-17.6 201.7c-2.9 33.5-14.3 59.2-34.1 77-19.7 17.8-46.4 26.7-79.9 26.7m-52.4-70h45.2c13.6 0 23.5-2.9 29.7-8.6s9.9-15.4 11.1-28.9l17-194c1.2-13.6-.8-23.2-6.1-28.9-5.2-5.7-14.6-8.6-28.2-8.6h-45.2c-13.6 0-23.4 2.9-29.4 8.6s-9.6 15.4-10.8 28.9l-17 194c-1.2 13.6.7 23.2 5.7 28.9 5.2 5.7 14.4 8.6 28 8.6" class="shp0"/><path d="M1583.5 137.3h54.1c8.9 0 13.8-4.7 14.6-14l1.7-19.1c2.9-33.1-4-58.6-20.6-76.7-16.7-18-41.5-27-74.6-27h-67.4c-33.5 0-60.2 8.9-79.9 26.7-19.8 17.8-31.2 43.5-34.1 77l-17.6 201.7c-2.9 33.5 3.9 59.2 20.6 77q25.05 26.7 75.3 26.7h67.4c33.1 0 59.5-9 79.3-27s31.2-43.6 34.1-76.7l9.3-106.2c.9-9.8-3.6-14.6-13.4-14.6h-125.9c-9.9 0-17 10.7-12.8 19.3l16.4 33c5.4 10.9 16.6 17.7 29.2 17.7h13.8c4.7 0 6.8 2.3 6.4 7l-3.5 40.1c-1.2 13.6-4.8 23.2-10.8 29-6 5.7-15.8 8.6-29.4 8.6h-41.4c-13.1 0-22.3-2.9-27.6-8.6-5.2-5.7-7.2-15.4-6.1-29l17-194c1.2-13.6 4.9-23.2 11.1-28.9s15.9-8.6 29.1-8.6h41.4c13.6 0 22.9 2.9 27.9 8.6s6.9 15.4 5.7 28.9l-1.3 15.3c-1 9.1 3.1 13.8 12 13.8" class="shp0"/></g></svg>

<svg xmlns="http://www.w3.org/2000/svg" viewBox="0 0 2146 410">
	<style>
		tspan { white-space:pre }
		.shp0 { fill: #091b2a } 
		.shp1 { fill: #00af73 } 
	</style>
	<g id="Layer">
		<g id="Layer">
			<path id="Layer" fill-rule="evenodd" class="shp0" d="M2027.3 59.5C2027.3 48.9 2029.9 39 2035.1 29.9C2040.3 20.8 2047.5 13.6 2056.7 8.4C2065.9 3.2 2075.8 0.5 2086.5 0.5C2097.2 0.5 2107.1 3.1 2116.2 8.4C2125.4 13.6 2132.5 20.8 2137.7 29.9C2142.9 39 2145.5 48.9 2145.5 59.5C2145.5 69.9 2143 79.6 2138 88.6C2133 97.7 2125.9 104.9 2116.7 110.4C2107.5 115.9 2097.4 118.7 2086.4 118.7C2075.5 118.7 2065.4 116 2056.2 110.5C2047 105.1 2039.9 97.8 2034.8 88.7C2029.9 79.8 2027.3 70 2027.3 59.5ZM2036.9 59.5C2036.9 68.5 2039.1 76.9 2043.6 84.6C2048 92.3 2054.1 98.3 2061.7 102.7C2069.3 107.1 2077.6 109.2 2086.5 109.2C2095.4 109.2 2103.7 107 2111.4 102.5C2119.1 98 2125.1 92 2129.4 84.4C2133.8 76.8 2135.9 68.4 2135.9 59.4C2135.9 50.4 2133.7 42.1 2129.4 34.5C2125 26.9 2119 20.9 2111.4 16.5C2103.8 12.1 2095.4 9.9 2086.5 9.9C2077.6 9.9 2069.3 12.1 2061.7 16.4C2054 20.7 2048 26.8 2043.6 34.4C2039.1 42.2 2036.9 50.5 2036.9 59.5ZM2074.2 92.1L2062.5 92.1L2062.5 25.1L2085.5 25.1C2094 25.1 2100.6 26.8 2105.3 30.3C2110 33.7 2112.3 38.8 2112.3 45.3C2112.3 51.8 2108.7 56.7 2101.6 60.1C2108.4 62.7 2111.8 68.1 2111.8 76.2L2111.8 81C2111.8 85.5 2112.3 88.8 2113.2 90.8L2113.2 92.1L2101.1 92.1C2100.3 90.2 2099.9 86.8 2099.9 82C2099.9 77.1 2099.8 74.2 2099.7 73.4C2098.8 68.3 2095.2 65.7 2088.8 65.5L2074.2 65.5L2074.2 92.1ZM2087.2 55.3C2091.2 55.2 2094.4 54.3 2096.9 52.5C2099.3 50.8 2100.6 48.5 2100.6 45.7C2100.6 41.9 2099.5 39.2 2097.4 37.6C2095.2 36 2091.4 35.2 2085.8 35.2L2074.3 35.2L2074.2 55.3L2087.2 55.3Z" />
		</g>
		<g id="Layer">
			<g id="Layer">
				<path id="Layer" class="shp1" d="M309.2 19.8C314.9 11.3 309.7 0.5 299.8 0.5L210 0.5L170 0.5L140.6 0.5C107.1 0.5 80.4 9.4 60.7 27.2C41 44.9 29.7 70.3 26.7 103.5L26.7 103.5L19.1 190.3L19.1 190.3C16.3 223.5 23.2 248.9 39.8 266.6C56.5 284.4 81.6 293.3 115.1 293.3L151.5 293.3L151.5 293.1C158.7 292.1 162.6 287.7 163.3 280L167 237.4C167.7 229.7 162 223.4 154.2 223.4L134 223.4C120.9 223.4 111.7 220.5 106.4 214.8C101.2 209.1 99.2 199.4 100.3 185.8L107.1 108C108.3 94.4 112 84.8 118.2 79.1C124.4 73.4 134.1 70.5 147.3 70.5L163.9 70.5L190.5 70.5L254.7 70.5C267.4 70.5 279.7 63.8 287 52.8L309.2 19.8Z" />
				<path id="Layer" class="shp1" d="M3.3 390.3C-2.4 398.8 2.8 409.6 12.7 409.6L104.8 409.6L144.8 409.6L174.2 409.6C207.7 409.6 234.4 400.7 254.1 382.9C273.8 365.2 285.1 339.8 288.1 306.6L288.1 306.6L295.7 219.8L295.7 219.8C298.5 186.6 291.6 161.2 275 143.5C258.3 125.7 233.2 116.8 199.7 116.8L163.3 116.8L163.3 117C156.1 118 152.2 122.4 151.5 130.1L147.8 172.7C147.1 180.4 152.8 186.7 160.6 186.7L181 186.7C194.1 186.7 203.3 189.6 208.6 195.3C213.8 201 215.8 210.7 214.7 224.2L207.9 302C206.7 315.6 203 325.2 196.8 330.9C190.6 336.6 180.9 339.5 167.7 339.5L151 339.5L124.4 339.5L57.9 339.5C45.2 339.5 32.9 346.2 25.6 357.2L3.3 390.3Z" />
			</g>
			<path id="Layer" class="shp0" d="M551 409.6L343 409.6C334.1 409.6 330 405.2 330.8 396.2L364.3 13.9C365.1 5 369.9 0.5 378.8 0.5L586.8 0.5C595.3 0.5 599.1 4.9 598.4 13.9L594.6 57.2C593.8 66.1 589.2 70.6 580.7 70.6L447.7 70.6C442.6 70.6 439.9 72.9 439.5 77.6L432.3 160.3C431.9 165 434.2 167.3 439.3 167.3L548.1 167.3C557 167.3 561.1 171.8 560.3 180.7L556.5 224C555.7 232.9 550.9 237.4 542 237.4L433.2 237.4C428.1 237.4 425.4 239.7 425 244.4L417.3 332.8C416.9 337.5 419.2 339.8 424.3 339.8L557.2 339.8C565.7 339.8 569.5 344.3 568.8 353.2L565 396.5C564.1 405.1 559.5 409.6 551 409.6Z" />
			<path id="Layer" class="shp0" d="M775.4 409.6L706.1 409.6C672.6 409.6 647.5 400.7 630.8 382.9C614.1 365.1 607.2 339.4 610.2 305.9L627.8 104.2C630.7 70.7 642.1 45 661.9 27.2C681.7 9.4 708.3 0.5 741.8 0.5L811.1 0.5C844.2 0.5 869.2 9.5 886 27.5C902.9 45.5 909.9 71.1 907 104.1L904.4 134C903.6 143.3 898.5 148 889.2 148L835.8 148C826.9 148 822.8 143.3 823.7 134L826 107.9C827.2 94.3 825.2 84.7 819.9 79C814.7 73.3 805.3 70.4 791.7 70.4L748.4 70.4C735.3 70.4 725.6 73.3 719.3 79C713.1 84.7 709.4 94.4 708.2 107.9L691.2 301.9C690 315.5 692 325.1 697.3 330.8C702.5 336.5 711.7 339.4 724.9 339.4L768.2 339.4C781.8 339.4 791.7 336.5 797.9 330.8C804.1 325.1 807.8 315.4 809 301.9L811.3 275.8C812.1 266.5 817 261.8 825.9 261.8L879.3 261.8C888.6 261.8 892.9 266.5 892.1 275.8L889.5 305.7C886.6 338.8 875.1 364.3 855.1 382.3C835 400.6 808.5 409.6 775.4 409.6Z" />
			<path id="Layer" class="shp0" d="M1071 409.6L1017.6 409.6C1008.3 409.6 1004 405.2 1004.8 396.2L1032.7 77.5C1033.1 72.8 1031 70.5 1026.3 70.5L953.8 70.5C944.9 70.5 940.8 66.1 941.6 57.1L945.4 13.8C946.2 4.9 951 0.4 959.9 0.4L1200.3 0.4C1209.2 0.4 1213.3 4.8 1212.5 13.8L1208.7 57.1C1207.9 66 1203.1 70.5 1194.2 70.5L1121.7 70.5C1116.6 70.5 1113.9 72.8 1113.5 77.5L1085.6 396.2C1084.7 405.1 1079.9 409.6 1071 409.6Z" />
			<path id="Layer" class="shp0" d="M1334.5 13.9L1301 396.2C1300.2 405.1 1295.4 409.6 1286.5 409.6L1232.4 409.6C1223.5 409.6 1219.4 405.1 1220.2 396.2L1253.7 13.9C1254.5 5 1259.3 0.5 1268.2 0.5L1322.3 0.5C1331.2 0.5 1335.3 5 1334.5 13.9Z" />
			<path id="Layer" fill-rule="evenodd" class="shp0" d="M1853.8 409.6L1782.6 409.6C1749.1 409.6 1724 400.7 1707.3 382.9C1690.6 365.1 1683.7 339.4 1686.7 305.9L1704.3 104.2C1707.2 70.7 1718.6 45 1738.4 27.2C1758.2 9.4 1784.8 0.5 1818.3 0.5L1889.5 0.5C1923 0.5 1948.1 9.4 1964.8 27.2C1981.5 45 1988.4 70.7 1985.4 104.2L1967.8 305.9C1964.9 339.4 1953.5 365.1 1933.7 382.9C1914 400.7 1887.3 409.6 1853.8 409.6ZM1801.4 339.6L1846.6 339.6C1860.2 339.6 1870.1 336.7 1876.3 331C1882.5 325.3 1886.2 315.6 1887.4 302.1L1904.4 108.1C1905.6 94.5 1903.6 84.9 1898.3 79.2C1893.1 73.5 1883.7 70.6 1870.1 70.6L1824.9 70.6C1811.3 70.6 1801.5 73.5 1795.5 79.2C1789.5 84.9 1785.9 94.6 1784.7 108.1L1767.7 302.1C1766.5 315.7 1768.4 325.3 1773.4 331C1778.6 336.7 1787.8 339.6 1801.4 339.6Z" />
			<path id="Layer" class="shp0" d="M1583.5 137.3L1637.6 137.3C1646.5 137.3 1651.4 132.6 1652.2 123.3L1653.9 104.2C1656.8 71.1 1649.9 45.6 1633.3 27.5C1616.6 9.5 1591.8 0.5 1558.7 0.5L1491.3 0.5C1457.8 0.5 1431.1 9.4 1411.4 27.2C1391.6 45 1380.2 70.7 1377.3 104.2L1359.7 305.9C1356.8 339.4 1363.6 365.1 1380.3 382.9C1397 400.7 1422.1 409.6 1455.6 409.6L1523 409.6C1556.1 409.6 1582.5 400.6 1602.3 382.6C1622.1 364.6 1633.5 339 1636.4 305.9L1645.7 199.7C1646.6 189.9 1642.1 185.1 1632.3 185.1L1521 185.1L1506.4 185.1C1496.5 185.1 1489.4 195.8 1493.6 204.4L1510 237.4C1515.4 248.3 1526.6 255.1 1539.2 255.1L1553 255.1C1557.7 255.1 1559.8 257.4 1559.4 262.1L1555.9 302.2C1554.7 315.8 1551.1 325.4 1545.1 331.2C1539.1 336.9 1529.3 339.8 1515.7 339.8L1474.3 339.8C1461.2 339.8 1452 336.9 1446.7 331.2C1441.5 325.5 1439.5 315.8 1440.6 302.2L1457.6 108.2C1458.8 94.6 1462.5 85 1468.7 79.3C1474.9 73.6 1484.6 70.7 1497.8 70.7L1539.2 70.7C1552.8 70.7 1562.1 73.6 1567.1 79.3C1572.1 85 1574 94.7 1572.8 108.2L1571.5 123.5C1570.5 132.6 1574.6 137.3 1583.5 137.3Z" />
		</g>
	</g>
</svg>
